static/img/undraw1.svg

<svg width="275" height="275" viewBox="0 0 275 275" fill="none" xmlns="http://www.w3.org/2000/svg">
<path d="M18.9651 135.349C27.8974 126.436 36.187 118.166 44.3166 110.054H11.7628C9.40286 118.256 6.98577 126.649 4.48195 135.349H18.9651ZM229.685 109.886C238.397 118.598 246.715 126.914 255.322 135.523C259.894 135.123 265.024 136.113 269.982 134.999C269.199 131.869 268.522 129.136 267.825 126.404C266.666 121.84 265.421 117.294 264.38 112.703C263.908 110.614 262.77 109.863 260.742 109.87C250.525 109.906 240.297 109.886 229.685 109.886ZM263.156 164.43C265.41 156.148 267.664 147.859 270.057 139.037C265.818 139.037 261.783 139.228 257.79 138.981C254.055 138.75 251.726 141.027 249.484 143.241C245.996 146.666 243.163 150.832 239.406 153.883C235.656 156.927 233.234 161.007 229.109 164.43L263.156 164.43ZM4.54012 139.037C7.11264 147.996 9.49823 156.306 11.8904 164.636C17.9187 164.636 23.5348 164.697 29.1499 164.618C34.7627 164.54 40.4036 164.97 46.4436 164.278C44.2532 162.374 42.1476 161.143 40.9295 159.318C39.7039 157.482 38.3795 156.133 36.5154 154.995C35.2887 154.245 34.5491 152.717 33.5478 151.578C32.6613 150.569 31.8759 149.32 30.7565 148.699C28.8333 147.631 27.6409 146.131 26.3445 144.388C23.919 141.125 20.8034 138.666 16.194 138.985C12.5462 139.24 8.86841 139.037 4.54012 139.037ZM189.415 256.192C189.305 256.076 189.195 255.959 189.085 255.842H86.4391C101.084 260.439 115.853 264.341 130.575 268.414C134.153 269.403 137.75 270.154 141.319 269.28C148.106 267.614 154.79 265.524 161.536 263.685C168.826 261.699 176.14 259.802 183.441 257.854C185.439 257.322 187.424 256.748 189.415 256.192ZM191.886 18.689C186.472 17.1994 182.336 16.0618 178.201 14.922C165.232 11.3471 152.267 7.76579 139.294 4.21025C138.571 4.01276 137.75 3.83246 137.043 3.97627C133.52 4.69854 129.975 5.379 126.516 6.35353C112.406 10.3319 98.3239 14.4122 83.4105 18.689H191.886ZM262.18 106.179C261.622 104.508 261.192 103.465 260.935 102.38C259.604 96.8682 258.67 91.236 256.943 85.856C255.193 80.4105 256.288 80.755 250.396 80.7518C235.109 80.7464 219.822 80.7508 204.534 80.7508H200.494C209.139 89.3869 217.471 97.7096 225.948 106.179L262.18 106.179ZM74.2054 80.9932C60.0186 80.2592 23.6508 80.5317 18.8836 81.3785C17.981 85.4417 16.9463 89.4717 16.2155 93.5552C15.4642 97.7536 12.8907 101.495 12.8069 106.14H48.9474C57.5396 97.5851 65.7549 89.4062 74.2054 80.9932ZM261.933 168.471H225.026C217.25 176.755 208.197 184.284 199.651 193.771H250.578C251.158 193.771 251.748 193.743 252.317 193.775C254.581 193.904 255.719 193.069 256.277 190.649C257.962 183.321 259.969 176.067 261.933 168.471ZM75.3923 193.467C71.8475 189.8 68.8093 185.803 64.9274 182.962C62.6308 181.281 61.7444 178.585 59.4789 177.28C56.8795 175.782 55.071 173.779 53.502 171.28C51.9791 168.855 49.6578 168.012 46.582 168.084C36.5131 168.323 26.4336 168.17 16.3593 168.18C15.2443 168.182 14.1291 168.275 12.6621 168.342C14.6754 175.647 16.6212 182.515 18.451 189.412C19.5822 193.676 19.5027 193.755 23.5207 193.76C40.1825 193.785 56.8452 193.773 73.5079 193.758C74.0617 193.758 74.6153 193.591 75.3923 193.467ZM103.45 51.7342H27.0582C24.9687 60.028 22.8736 68.3423 20.6918 77.0041H78.1141C86.6526 68.4882 94.8679 60.2942 103.45 51.7342ZM247.659 51.9038H171.627C180.07 60.3189 188.417 68.6405 196.923 77.1211C215.354 77.1211 234.14 77.1221 252.929 77.1083C253.079 77.1083 253.251 76.9333 253.39 76.8131C253.53 76.6918 253.648 76.5383 254.109 76.0178C252.038 68.2735 249.892 60.2588 247.659 51.9038ZM170.937 222.626C172.283 222.775 172.845 222.893 173.408 222.893C196.5 222.903 219.591 222.902 242.679 222.902C243.27 222.902 243.849 222.877 244.429 222.906C246.447 223.001 247.595 222.212 248.099 220.096C249.119 215.862 250.514 211.719 251.523 207.483C252.295 204.261 253.744 201.148 253.776 197.504H195.576C187.474 205.765 179.474 213.922 170.937 222.626ZM104.007 222.902C102.198 220.644 101.204 218.614 99.5784 217.573C97.5457 216.272 95.9939 214.85 94.8789 212.726C94.3691 211.753 93.3871 210.8 92.3879 210.36C90.2984 209.439 89.0361 207.936 88.066 205.958C87.6582 205.127 86.8222 204.484 86.1074 203.835C83.887 201.824 81.6311 199.851 79.0941 197.602H20.8196C21.6965 203.349 24.4278 208.326 24.519 213.891C24.5404 215.157 25.3227 216.407 25.7445 217.667C27.4852 222.879 27.4832 222.898 32.8954 222.899C54.9993 222.906 77.1032 222.902 99.2061 222.902H104.007ZM245.674 227.293C241.338 226.112 198.313 225.709 167.322 226.555C165.223 228.218 162.934 229.692 161.064 231.581C157.607 235.07 154.499 238.903 151.051 242.4C147.907 245.586 144.505 248.52 141.075 251.697C141.801 251.838 142.35 252.035 142.9 252.036C163.096 252.053 183.292 252.056 203.488 252.032C204.631 252.031 205.815 251.953 206.908 251.651C213.114 249.94 219.285 248.11 225.49 246.401C230.243 245.091 235.043 243.95 239.792 242.614C240.63 242.376 241.724 241.696 241.982 240.968C243.527 236.503 246.178 232.307 245.674 227.293ZM134.03 252.05C125.084 243.175 116.802 234.96 108.411 226.634C92.0176 225.786 33.7572 226.166 28.9363 227.212C29.7348 230.504 31.0108 233.768 31.1868 237.09C31.3381 239.964 32.4576 241.4 34.8927 242.199C39.0353 243.561 43.1487 245.051 47.3643 246.14C53.4065 247.702 59.5745 248.729 65.5125 250.772C67.9852 251.622 70.7389 251.982 73.3683 251.997C91.409 252.1 109.45 252.05 127.491 252.05L134.03 252.05ZM132.908 22.9045C131.689 22.6458 131.321 22.4989 130.953 22.4989C110.755 22.486 90.5567 22.4838 70.3601 22.486C69.3899 22.486 68.3748 22.3722 67.4572 22.6094C61.4043 24.172 55.3534 25.7475 49.3402 27.454C43.8797 29.0047 38.4674 30.7261 32.4392 32.5527C31.9583 34.7002 31.3337 37.2459 30.8304 39.8162C30.3088 42.4757 27.9855 44.8957 29.649 48.0768C54.9425 48.0768 80.1757 48.0628 105.408 48.1112C107.124 48.1144 108.299 47.5101 109.464 46.3371C117.117 38.6283 124.824 30.9729 132.908 22.9045ZM245.62 47.8449C245.921 41.9359 243.849 36.9197 241.96 32.4883C238.472 31.3776 235.613 30.3516 232.692 29.5627C225.192 27.5387 217.618 25.7775 210.173 23.5689C207.715 22.8402 205.346 22.4742 202.84 22.4752C184.197 22.486 165.554 22.4817 146.911 22.4817H142.365C150.938 31.0545 159.287 39.4041 167.727 47.8449H245.62ZM24.9891 137.194C26.9605 139.38 28.7926 141.516 30.7437 143.535C31.6624 144.486 32.8202 145.204 33.8504 146.051C34.7412 146.784 35.6802 147.478 36.4637 148.315C40.1834 152.291 43.9602 156.192 47.9696 159.897C51.0272 162.721 53.72 165.936 56.8173 168.768C58.5913 170.39 60.271 172.238 61.8776 173.992C64.4608 176.816 67.0118 179.581 70.0619 181.892C70.3613 182.119 70.6552 182.452 70.7754 182.797C71.5266 184.971 73.1601 186.173 75.1424 187.144C75.972 187.551 76.6138 188.392 77.2652 189.105C80.3142 192.444 83.0186 196.197 86.4797 199.026C88.8977 201.001 90.7543 203.289 92.8642 205.448C95.0986 207.734 98.1328 209.213 99.586 212.351C99.8585 212.938 100.874 213.139 101.417 213.653C102.941 215.101 104.384 216.633 105.887 218.105C106.804 219.004 107.796 219.828 108.711 220.731C111.959 223.93 115.388 226.977 118.333 230.435C119.696 232.034 120.631 233.827 122.695 234.805C123.845 235.35 124.648 236.636 125.591 237.604C126.891 238.938 128.172 240.291 129.471 241.626C130.533 242.719 131.662 243.753 132.665 244.899C133.653 246.027 134.518 247.263 135.666 248.748C136.581 241.621 136.386 30.4868 135.58 26.6265C98.7626 63.4365 61.8539 100.338 24.9891 137.194ZM137.873 6.55037e-05C141.073 0.697611 144.682 1.18273 148.093 2.28169C158.571 5.6623 169.348 7.88923 179.933 10.8405C190.703 13.8434 201.416 17.0523 212.187 20.0434C219.672 22.1233 227.22 23.9703 234.73 25.9568C237.481 26.6844 240.179 27.632 242.948 28.2513C244.729 28.6484 245.545 29.7023 246.039 31.2788C247.069 34.5263 248.282 37.7234 249.162 41.0096C251.77 50.7115 254.227 60.4541 256.792 70.1688C259.014 78.5968 261.246 87.0215 263.575 95.4194C265.603 102.72 268.082 109.91 269.778 117.284C271.13 123.217 272.311 129.162 274.586 134.832C275.788 137.812 274.028 140.519 273.32 143.148C269.574 157.252 265.367 171.229 261.997 185.44C260.591 191.337 258.445 197.051 257.007 202.939C255.215 210.319 252.499 217.452 250.847 224.813C249.591 230.38 248.045 235.833 246.554 241.324C245.717 244.435 243.839 245.522 240.716 246.458C232.166 249.022 223.408 250.767 214.917 253.403C206.573 255.991 198.009 257.698 189.708 260.31C180.819 263.108 171.533 264.462 162.803 267.532C154.878 270.318 146.665 271.732 138.648 273.994C136.353 274.644 133.428 273.419 130.877 272.732C122.098 270.369 113.364 267.832 104.597 265.422C97.8344 263.561 91.0613 261.738 84.2678 259.995C75.0886 257.642 66.034 254.787 56.887 252.422C48.4333 250.237 39.998 248.15 31.6838 245.438C29.3721 244.685 28.2387 243.367 27.9768 241.718C26.3692 231.538 22.1235 222.065 20.1284 212.041C18.4177 203.438 15.1111 195.323 13.2867 186.796C11.7348 179.544 8.89841 172.648 7.33372 165.449C5.43411 156.708 2.99567 148.17 0.249365 139.679C-0.28298 138.033 0.130218 135.903 0.619592 134.14C2.14032 128.658 4.05067 123.283 5.53813 117.794C6.92471 112.678 7.49355 107.298 9.2611 102.333C12.2028 94.0746 13.5002 85.4224 16.0415 77.0771C18.6344 68.5611 20.7681 59.9068 23.1044 51.3136C24.6445 45.6481 26.3992 40.0287 27.6538 34.301C28.4941 30.4643 30.0513 28.6001 34.2712 27.7898C41.1247 26.474 47.7283 23.8887 54.4809 21.9966C62.8735 19.6485 71.3217 17.4966 79.726 15.1924C88.4953 12.7884 97.1852 10.07 106.016 7.93001C113.216 6.18385 120.303 4.16083 127.352 1.89961C130.58 0.863957 134.076 0.656872 137.873 6.55037e-05Z" fill="white"/>
</svg>

<svg version="1.2" xmlns="http://www.w3.org/2000/svg" viewBox="0 0 275 275" width="275" height="275">
	<title>undraw1-svg</title>
	<defs>
		<linearGradient id="g1" x2="1" gradientUnits="userSpaceOnUse" gradientTransform="matrix(-89.086,274.178,-274.57,-89.213,182.04,0)">
			<stop offset="0" stop-color="#382d63"/>
			<stop offset="1" stop-color="#193e26"/>
		</linearGradient>
	</defs>
	<style>
		.s0 { fill: url(#g1) } 
	</style>
	<path id="Layer" fill-rule="evenodd" class="s0" d="m137.9 0c3.2 0.7 6.8 1.2 10.2 2.3 10.5 3.4 21.2 5.6 31.8 8.5 10.8 3 21.5 6.3 32.3 9.2 7.5 2.1 15 4 22.5 6 2.8 0.7 5.5 1.6 8.2 2.3 1.8 0.3 2.6 1.4 3.1 3 1.1 3.2 2.3 6.4 3.2 9.7 2.6 9.7 5 19.5 7.6 29.2 2.2 8.4 4.4 16.8 6.8 25.2 2 7.3 4.5 14.5 6.2 21.9 1.3 5.9 2.5 11.9 4.8 17.5 1.2 3-0.6 5.7-1.3 8.3-3.7 14.2-7.9 28.1-11.3 42.3-1.4 5.9-3.6 11.7-5 17.5-1.8 7.4-4.5 14.6-6.2 21.9-1.2 5.6-2.8 11-4.2 16.5-0.9 3.1-2.8 4.2-5.9 5.2-8.5 2.5-17.3 4.3-25.8 6.9-8.3 2.6-16.9 4.3-25.2 6.9-8.9 2.8-18.2 4.2-26.9 7.2-7.9 2.8-16.1 4.2-24.2 6.5-2.2 0.6-5.2-0.6-7.7-1.3-8.8-2.3-17.5-4.9-26.3-7.3q-10.1-2.8-20.3-5.4c-9.2-2.4-18.3-5.2-27.4-7.6-8.5-2.2-16.9-4.2-25.2-7-2.3-0.7-3.5-2-3.7-3.7-1.6-10.2-5.9-19.6-7.9-29.7-1.7-8.6-5-16.7-6.8-25.2-1.6-7.3-4.4-14.2-6-21.4-1.9-8.7-4.3-17.2-7.1-25.7-0.5-1.7-0.1-3.8 0.4-5.6 1.5-5.4 3.5-10.8 4.9-16.3 1.4-5.1 2-10.5 3.8-15.5 2.9-8.2 4.2-16.9 6.7-25.2 2.6-8.5 4.8-17.2 7.1-25.8 1.5-5.7 3.3-11.3 4.6-17 0.8-3.8 2.4-5.7 6.6-6.5 6.8-1.3 13.4-3.9 20.2-5.8 8.4-2.4 16.8-4.5 25.2-6.8 8.8-2.4 17.5-5.1 26.3-7.3 7.2-1.7 14.3-3.7 21.4-6 3.2-1 6.7-1.2 10.5-1.9zm91.8 109.9c8.7 8.7 17 17 25.6 25.6 4.6-0.4 9.7 0.6 14.7-0.5-0.8-3.1-1.5-5.9-2.2-8.6-1.1-4.6-2.4-9.1-3.4-13.7-0.5-2.1-1.6-2.8-3.7-2.8-10.2 0-20.4 0-31 0zm33.5 54.5c2.2-8.3 4.5-16.5 6.9-25.4-4.3 0-8.3 0.2-12.3 0-3.7-0.3-6.1 2-8.3 4.2-3.5 3.5-6.3 7.6-10.1 10.7-3.7 3-6.2 7.1-10.3 10.5zm-258.6-25.4c2.6 9 5 17.3 7.3 25.6 6.1 0 11.7 0.1 17.3 0 5.6-0.1 11.3 0.4 17.3-0.3-2.2-1.9-4.3-3.2-5.5-5-1.2-1.8-2.6-3.2-4.4-4.3-1.3-0.8-2-2.3-3-3.4-0.9-1-1.7-2.3-2.8-2.9-1.9-1.1-3.1-2.6-4.4-4.3-2.4-3.3-5.5-5.7-10.2-5.4-3.6 0.2-7.3 0-11.6 0zm184.9 117.2q-0.2-0.2-0.4-0.4h-102.6c14.6 4.6 29.4 8.5 44.1 12.6 3.6 1 7.2 1.8 10.8 0.9 6.8-1.7 13.4-3.8 20.2-5.6 7.3-2 14.6-3.9 21.9-5.8q3-0.9 6-1.7zm2.4-237.5c-5.4-1.5-9.5-2.6-13.6-3.8q-19.5-5.3-39-10.7c-0.7-0.2-1.5-0.4-2.2-0.2-3.5 0.7-7.1 1.4-10.5 2.4-14.1 3.9-28.2 8-43.1 12.3zm70.3 87.5c-0.6-1.7-1-2.7-1.3-3.8-1.3-5.5-2.3-11.2-4-16.5-1.7-5.5-0.6-5.1-6.5-5.1q-23-0.1-45.9 0h-4c8.6 8.6 16.9 16.9 25.4 25.4zm-187.9-25.2c-14.2-0.7-50.6-0.5-55.4 0.4-0.9 4-1.9 8.1-2.6 12.2-0.8 4.2-3.4 7.9-3.4 12.5h36.1c8.6-8.5 16.8-16.7 25.3-25.1zm187.7 87.5h-36.9c-7.8 8.3-16.9 15.8-25.4 25.3h50.9c0.6 0 1.2-0.1 1.8 0 2.2 0.1 3.4-0.7 3.9-3.2 1.7-7.3 3.7-14.5 5.7-22.1zm-186.6 25c-3.5-3.7-6.5-7.7-10.4-10.5-2.3-1.7-3.2-4.4-5.5-5.7-2.6-1.5-4.4-3.5-6-6-1.5-2.4-3.8-3.3-6.9-3.2-10 0.2-20.1 0.1-30.2 0.1-1.1 0-2.2 0.1-3.7 0.1 2 7.3 4 14.2 5.8 21.1 1.1 4.3 1 4.4 5.1 4.4q25 0 50 0c0.5 0 1.1-0.2 1.8-0.3zm28.1-141.8h-76.4c-2.1 8.3-4.2 16.6-6.4 25.3h57.5c8.5-8.5 16.7-16.7 25.3-25.3zm144.2 0.2h-76c8.4 8.4 16.8 16.7 25.3 25.2 18.4 0 37.2 0 56 0 0.1 0 0.3-0.2 0.4-0.3 0.2-0.1 0.3-0.3 0.8-0.8-2.1-7.7-4.3-15.7-6.5-24.1zm-76.7 170.7c1.3 0.2 1.9 0.3 2.5 0.3q34.6 0 69.2 0c0.6 0 1.2 0 1.8 0 2 0.1 3.1-0.7 3.6-2.8 1.1-4.2 2.5-8.4 3.5-12.6 0.7-3.2 2.2-6.4 2.2-10h-58.2c-8.1 8.3-16.1 16.4-24.6 25.1zm-66.9 0.3c-1.9-2.3-2.9-4.3-4.5-5.3-2-1.3-3.6-2.7-4.7-4.9-0.5-0.9-1.5-1.9-2.5-2.3-2.1-1-3.3-2.5-4.3-4.4-0.4-0.9-1.2-1.5-1.9-2.2-2.3-2-4.5-3.9-7.1-6.2h-58.2c0.8 5.7 3.6 10.7 3.7 16.3 0 1.3 0.8 2.5 1.2 3.8 1.7 5.2 1.7 5.2 7.1 5.2q33.2 0 66.4 0zm141.6 4.4c-4.3-1.2-47.3-1.6-78.3-0.7-2.1 1.6-4.4 3.1-6.3 5-3.4 3.5-6.6 7.3-10 10.8-3.1 3.2-6.6 6.1-10 9.3 0.7 0.1 1.3 0.3 1.8 0.3q30.3 0.1 60.6 0c1.2 0 2.4 0 3.5-0.3 6.2-1.8 12.3-3.6 18.5-5.3 4.8-1.3 9.6-2.4 14.3-3.8 0.9-0.2 2-0.9 2.2-1.6 1.6-4.5 4.2-8.7 3.7-13.7zm-111.6 24.8c-9-8.9-17.3-17.1-25.6-25.5-16.4-0.8-74.7-0.4-79.5 0.6 0.8 3.3 2.1 6.6 2.2 9.9 0.2 2.9 1.3 4.3 3.7 5.1 4.2 1.4 8.3 2.9 12.5 3.9 6.1 1.6 12.2 2.6 18.2 4.7 2.4 0.8 5.2 1.2 7.8 1.2 18.1 0.1 36.1 0.1 54.1 0.1zm-1.1-229.2c-1.2-0.3-1.6-0.4-1.9-0.4q-30.3 0-60.6 0c-1 0-2-0.1-2.9 0.1-6.1 1.6-12.1 3.1-18.2 4.9-5.4 1.5-10.8 3.2-16.9 5.1-0.4 2.1-1.1 4.6-1.6 7.2-0.5 2.7-2.8 5.1-1.1 8.3 25.2 0 50.5 0 75.7 0 1.7 0 2.9-0.6 4.1-1.8 7.6-7.7 15.3-15.3 23.4-23.4zm112.7 24.9c0.3-5.9-1.7-10.9-3.6-15.3-3.5-1.1-6.4-2.1-9.3-2.9-7.5-2.1-15.1-3.8-22.5-6-2.5-0.8-4.8-1.1-7.4-1.1q-27.9 0-55.9 0h-4.5c8.5 8.6 16.9 16.9 25.3 25.3zm-220.6 89.4c2 2.2 3.8 4.3 5.8 6.3 0.9 1 2 1.7 3.1 2.6 0.9 0.7 1.8 1.4 2.6 2.2 3.7 4 7.5 7.9 11.5 11.6 3 2.8 5.7 6 8.8 8.9 1.8 1.6 3.5 3.4 5.1 5.2 2.6 2.8 5.1 5.6 8.2 7.9 0.3 0.2 0.6 0.6 0.7 0.9 0.7 2.2 2.4 3.4 4.4 4.3 0.8 0.5 1.4 1.3 2.1 2 3 3.3 5.7 7.1 9.2 9.9 2.4 2 4.3 4.3 6.4 6.4 2.2 2.3 5.2 3.8 6.7 7 0.3 0.5 1.3 0.7 1.8 1.3 1.6 1.4 3 2.9 4.5 4.4 0.9 0.9 1.9 1.7 2.8 2.6 3.3 3.2 6.7 6.3 9.6 9.7 1.4 1.6 2.3 3.4 4.4 4.4 1.2 0.5 2 1.8 2.9 2.8q1.9 2 3.9 4c1 1.1 2.2 2.2 3.2 3.3 1 1.1 1.8 2.4 3 3.8 0.9-7.1 0.7-218.2-0.1-222.1-36.8 36.8-73.7 73.7-110.6 110.6zm-6-1.9c8.9-8.9 17.2-17.1 25.3-25.2h-32.5c-2.4 8.2-4.8 16.5-7.3 25.2z"/>
</svg>
